!!!COM: Schiørring, Niels
!!!CDT: 1743-1798
!!!OPR@@DA: Choral-Bog
!!!ONM: 15
!!!OTL@@DA: Eet er nødigt, dette eene
**kern	**fb	**kern	**kern	**kern	**kern	**kern	**kern	**kern
*part6	*part6	*part6	*part5	*part5	*part4	*part3	*part2	*part1
*staff8	*	*staff7	*staff6	*staff5	*staff4	*staff3	*staff2	*staff1
*clefF4	*	*clefC1	*clefF4	*clefC1	*clefF4	*clefC4	*clefC3	*clefC1
*	*	*	*	*	*	*Trd0c0	*	*
*k[f#c#g#]	*	*k[f#c#g#]	*k[f#c#g#]	*k[f#c#g#]	*k[f#c#g#]	*k[f#c#g#]	*k[f#c#g#]	*k[f#c#g#]
*A:	*	*A:	*A:	*A:	*A:	*A:	*A:	*A:
*M4/4	*	*M4/4	*M4/4	*M4/4	*M4/4	*M4/4	*M4/4	*M4/4
*met(c)	*	*met(c)	*met(c)	*met(c)	*met(c)	*met(c)	*met(c)	*met(c)
*MM180	*	*MM180	*MM180	*MM180	*MM180	*MM180	*MM180	*MM180
=1	=1	=1	=1	=1	=1	=1	=1	=1
*	*	*	*^	*^	*	*	*	*
2AA	.	2a	1ryy	2AA	2c#	2e	2AA	2cc#	2e	2a
2BB	6	(4g#	.	2BB	2d	2d	2BB	2dd	2d	(4g#
.	5	4f#)	.	.	.	.	.	.	.	4f#)
=2	=2	=2	=2	=2	=2	=2	=2	=2	=2	=2
2C#	6	2e	2A	2C#	2e	2e	2C#	2a	2c#	2e
2C#	6	2a	2ryy@	2C#	2c#	2e	2C#	2a	2e	2a
=3	=3	=3	=3	=3	=3	=3	=3	=3	=3	=3
2BB	6	2b	1ryy	2BB	2d	2g#	2BB	2g#	2d	2b
2AA	.	2cc#	.	2AA	2e	2a	2AA	2a	2e	2cc#
=4	=4	=4	=4	=4	=4	=4	=4	=4	=4	=4
*	*	*	*	*	*	*^	*	*	*	*
2E	.	2b	4e	2E	2b	2e	2g#\	2E	2g#	(4e	2b
.	.	.	4d	.	.	.	.	.	.	4d)	.
2A	.	2a	2c#	2A	2a	2c#	2a\	2A	2a	2c#	2a
*	*	*	*	*	*	*v	*v	*	*	*	*
=5	=5	=5	=5	=5	=5	=5	=5	=5	=5	=5
2G#	6	2b	2B	2G#	2b	2e	2G#	2ee	2e	2b
2E	.	2b	2ryy@	2E	2e	2g#	2E	2g#	2e	2b
=6	=6	=6	=6	=6	=6	=6	=6	=6	=6	=6
2A	.	2cc#	1ryy	2A	2e	2a	2A	2a	2e	2cc#
2D#X	6	(4b	.	2D#X	2f#	[2f#	2D#X	2f#	[2f#	(4b
.	5	4a)	.	.	.	.	.	.	.	4a)
=7	=7	=7	=7	=7	=7	=7	=7	=7	=7	=7
2E	9	2g#	2.B	2E	2g#	4f#]	2E	2b	(4f#]	2g#
*	*	*	*	*	*v	*v	*	*	*	*
2BB	4	2f#	.	2BB	2f#	2BB	(4b	.	2f#
=8	=8	=8	=8	=8	=8	=8	=8	=8	=8
*	*	*	*	*	*^	*	*	*	*
1E	#	1e	1G#	1E	1e	1B	1E	1g#	1e	1e
=9:|!	=9:|!	=9:|!	=9:|!	=9:|!	=9:|!	=9:|!	=9:|!	=9:|!	=9:|!	=9:|!
2r	.	2r	2r	2r	2r	2r	2r	2r	2r	2r
4E	.	2e	2G#	4E	2e	2B	(4E	2g#	2B	2e
4D	.	.	.	4D	.	.	4D)	.	.	.
=10	=10	=10	=10	=10	=10	=10	=10	=10	=10	=10
2C#	6	2a	2.A	2C#	2a	2e	2C#	[2a	2e	2a
2BB	7	4b	.	2BB	4b	2d	4BB	4a]	4d	4b
.	6	4b	4G#	.	4b	.	4BB	4g#	4d	4b
=11	=11	=11	=11	=11	=11	=11	=11	=11	=11	=11
2AA	.	2cc#	2A	2AA	2cc#	2e	2AA	2a	2e	2cc#
2D	6	4b	4F#	2D	4b	2f#	4D	4f#	4f#	4b
.	5	4a	4d	.	4a	.	4D	4a	4f#	4a
=12	=12	=12	=12	=12	=12	=12	=12	=12	=12	=12
2GG#	5	2dd	1ryy	2GG#	2e	2b	2GG#	2b	2e	2dd
4AA	.	4cc#	.	4AA	4e	[2a	4AA	4a	4e	4cc#
4D	.	4dd	.	4D	4f#	.	4D	4a	4f#	4dd
=13	=13	=13	=13	=13	=13	=13	=13	=13	=13	=13
1E	4	2b	1ryy	1E	2e	2a]	2E	2a	2e	2b
.	3	2b	.	.	2e	2g#	2E	2g#	2e	2b
=14	=14	=14	=14	=14	=14	=14	=14	=14	=14	=14
2r	.	2r	2r	2r	2r	2r	2r	2r	2r	2r
2E	.	2b	2ryy@	2E	2e	2g#	2E	2ee	2g#	2b
=15	=15	=15	=15	=15	=15	=15	=15	=15	=15	=15
2A	.	2cc#	1ryy	2A	2e	2a	2A	2ee	2a	2cc#
2BB#X	5	4dd#X	.	2BB#X	2f#	2g#	4BB#X	4ff#	4g#	4dd#X
.	.	4dd#	.	.	.	.	4BB#	4ff#	4g#	4dd#
=16	=16	=16	=16	=16	=16	=16	=16	=16	=16	=16
2C#	.	2ee	1ryy	2C#	2e	2g#	2C#	2ee	2g#	2ee
2F#	6	4dd#X	.	2F#	[2f#	[2a	4F#	4ff#	4a	4dd#X
.	5	4cc#	.	.	.	.	4F#	[4ff#	[4a	4cc#
=17	=17	=17	=17	=17	=17	=17	=17	=17	=17	=17
2G#	9 7	2b	1ryy	2G#	4f#]	4a]	2G#	(4ff#]	(4a]	2b
2A	8 6	4a	.	2A	4c#	4f#	4A	4cc#	4f#	4a
.	7 5	4g#	.	.	4e	[4e	4A	4ee	4e	4g#
=18	=18	=18	=18	=18	=18	=18	=18	=18	=18	=18
2B	4	2f#	2B	2B	2f#	4e]	2B	(4b	(4e	2f#
2E	#	2e	2G#	2E	2e	2B	2E	2g#	2e	2e
=19	=19	=19	=19	=19	=19	=19	=19	=19	=19	=19
2r	.	2r	2r	2r	2r	2r	2r	2r	2r	2r
2D	2	2e	2G#	2Dni	2e	2B	2D	2g#	2B	2e
=20	=20	=20	=20	=20	=20	=20	=20	=20	=20	=20
2C#	6	2a	2A	2C#	2a	2e	2C#	2a	2e	2a
2C#	.	4e	2A	2C#	4e	2e	4C#	4a	4e	4e
.	nr5	4gn	.	.	4gn	.	4C#	4a	4e	4gn
=21	=21	=21	=21	=21	=21	=21	=21	=21	=21	=21
2D	nr5	2f#	2A	2D	2f#	2d	2D	2a	2d	2f#
2D	8	4dd	2A	2D	4dd	2f#	4D	4a	4f#	4dd
.	7	4cc#	.	.	4cc#	.	4D	4a	4f#	4cc#
=22	=22	=22	=22	=22	=22	=22	=22	=22	=22	=22
2D#X	6	2b	2B	2D#X	2b	2f#	2D#X	2b	2f#	2b
2D#	.	4b	2B	2D#	4b	2f#	4D#	4b	4f#	4b
.	5	4a	.	.	4a	.	4D#	4b	4f#	4a
=23	=23	=23	=23	=23	=23	=23	=23	=23	=23	=23
2E	5	2g#	2B	2E	2g#	2e	2E	2b	2e	2g#
2C#	.	2ee	2c#	2C#	2ee	[2g#	2C#	2cc#	[2g#	2ee
=24	=24	=24	=24	=24	=24	=24	=24	=24	=24	=24
4F#	9_	2a	2c#	4F#	2a	2g#]	(4F#	2cc#	2g#]	2a
4E	.	.	.	4E	.	.	4E)	.	.	.
4D	6	4b	4d	4D	4b	4f#	4D	4dd	4f#	4b
4C#	6	4cc#	4A#X	4C#	4cc#	4e	4C#	4ee	4a#X	4cc#
=25	=25	=25	=25	=25	=25	=25	=25	=25	=25	=25
4BB	7	2dd	4B	4BB	2dd	4f#	(4BB	(4ff#	2b	2dd
4E	.	.	4G#	4E	.	2e	4E)	4gg#)	.	.
4AA	.	4cc#	2Ani	4AAni	4cc#	.	4AA	4ee	4ani	4cc#
4F#	6	4dd	.	4F#	4dd	4d	4F#	4dd	4a	4dd
=26	=26	=26	=26	=26	=26	=26	=26	=26	=26	=26
4E	6 4	2cc#	2A	4E	2cc#	2e	(4E	2ee	2a	2cc#
4D	.	.	.	4D	.	.	4D)	.	.	.
*	*	*	*	*	*	*	*^	*	*	*
4E	5 3	8bL	4G#	4E	8bL	4e	4E	4E	4ee	4g#	8bL
.	5 3	8aJ	.	.	8aJ	.	.	.	.	.	8aJ
4EE	.	4b	4ryy@	4EE	4d	4e	4E	4EE	4dd	4g#	4b
*	*	*	*	*	*	*	*v	*v	*	*	*
=27	=27	=27	=27	=27	=27	=27	=27	=27	=27	=27
1AA	.	1a	1ryy	1AA	1c#	1e	1AA	1cc#	1a	1a
*	*	*	*v	*v	*	*	*	*	*	*
*	*	*	*	*v	*v	*	*	*	*
==	==	==	==	==	==	==	==	==
*-	*-	*-	*-	*-	*-	*-	*-	*-
!!!system-decoration: {(s1,s2,s3,s4)}{(s5,s6)}{(s7,s8)}
!!!RDF**kern: i = editorial accidental
!!!AGN: chorale
!!!EED: Derek Remeš
!!!EED2: Victor Phan
!!!END: 2023/11/28
!!!ENC: Wolfgang Drescher
!!!EEV: 2023/11/28
!!!title: @{ONM}. @{OTL}